X: 182
T:On the Trail of the Lonesome Pine
% Nottingham Music Database
S:Otto Wood, via EF
M:6/8
K:D
f/2e/2|"D"d3 A3|"Bm"A2B A2F|"E7"^G3 -G3|e3 ^d2e|"A7"f3 e2c|A3 e3|"D"d3 -"G"d3|\
"D/f+"d3 "A7/e"f2e|
"D"d3 A3|"Bm"A2B A2F|"E7"^G3 -G3|e3 -e2e|"E7"e3 B2c|d3 c2B|"A"c3 "E7"d3|\
"A7"e3 ^e3|"D"f3 -f3|
f3 e2d|"D"e2f de2-|e3 f2d|"G"e3 -e3|e3 d2B|"G"d2e ^e2=f|"F#7"f3 "A7"f2e|
"D"d3 A3|"Bm"A2B A2F|"E7"^G3 -G3|e3 ^d2e|"A7"f3 e2c|A3 e3|"D"d3 -d3|d3 d2:|<end>
<start>
